X:1
T:Nun komm, der Heiden Heiland (BWV 661)
T:in organo pleno
C:J.S. Bach
M:C|
L:1/8
%%staves {1 2 3} 4
%%maxshrink 0.83
%%continueall 1
%%staffsep 1.5cm
%%sysstaffsep 0.9cm
%%header "Nun komm, der Heiden Heiland$P / 4"
K:Gm
V:1
%%MIDI program 19
G^FGD dABG|^F=EFD dABG|_eABG ^FdAc|B2d2^c2d2|=e2a2^c2d2|g2ab afg=e|
V:2
%%MIDI program 19
z8|z8|z8|DCDG, G=EFD|^C=B,CA, A=EFD|B=EFD ^CAEG|
V:3
%%MIDI program 19
z8|z8|z8|z8|z8|z8|
V:4
%%MIDI program 48
z8|z8|z8|z8|z8|z8|
V:1
d=efg f_edc|=B2g2G2B2|cdef edcB|A2f2F2A2|Bcde dcBA|GBcd cBAG|^F2d2D2F2|
V:2
F2d2D2F2|GA=Bc BAGF|E2c2C2E2|FGAB AGFE|D2B2B,2D2|E2A,2B,2C2|D=E^FG FEDC|
V:3
z8|z8|z8|z8|z8|z8|z8|
V:4
z8|z8|z8|z8|z8|z8|z8|
V:1
G2_e2A2d2|B4A2d2|c2z2z2B2|^F2z2z2^f2|gabc' bag=f|e2c'2c2=e2|fgab agf_e|
V:2
B,DGA G^F=EF|G2DG^F2G2|A2d2^F2G2|c2de dBcA|D2z2z2D2|G2z2z2G2|c2z2z2C2|
V:3
z8|G,^F,G,D, DA,B,G,|^F,=E,F,D, DA,B,G,|_EA,B,G, ^F,DA,C|B,2G2G,2B,2|CDEF EDCB,|A,2F2F,2A,2|
V:4
z8|z8|z8|z8|z8|z8|z8|
V:1
d2b2B2d2|e2g2c2=e2|f2a2d2^f2|g4z4|dcde dBcA|G2B2 c2e2|^F2z2 z4|
V:2
F2z2z2F2|B2z2z2B2|c2z2z2c2|dcdG gdec|BABG A2D2|G^FGD dABG|eABG ^FdAc|
V:3
B,CDE DCB,_A,|G,B,CD CB,=A,G,|A,CD_E DCB,A,|B,A,G,A, B,DCE|D4z4|z2G,2^F,2G,2|C2DE DB,CA,|
V:4
z8|z8|z8|G,,8|G,,4^F,,4|B,,4 A,,2G,,2|A,,8|
V:1
dcdG gdec|=BABG gdec|_adec =Bgdf|e8-|e2c2A2c2|d8-|d2B2G2B2|
V:2
B2z2z4|z8|z8|z=Bcd c_BAG|A2A2F2A2|BABc BAG^F|G2G2E2G2-|
V:3
B,A,G,A, =B,2C2|D2G2 =B,2C2|F2G_A GEFD|C2G,2C,2E,2|F,E,F,G, F,E,D,C,|B,,2B,2B,,2D,2|\
E,D,E,F, E,D,C,B,,|
V:4
G,,8-|G,,8-|G,,8|z8|z8|z8|z8|
V:1
c8-|c4- cABc|BAG^F GD_E=F|E4- EGFE|D2=E^F G4-|GABA BcdB|egfe dcBA|
V:2
G2^F=E F2G2|AG^F=E D4-|DCB,A, B,2=B,2-|B,DC=B, C4-|C2_B,A, G,2z2|z8|GCDB, A,FCE|
V:3
A,,G,,A,,B,, A,,G,,^F,,=E,,|^F,,2D,2 ^F,2D,2|G,8-|G,4z4|G,^F,G,D, DA,B,G,|ECDE DCB,A,|\
G,4 F,4-|
V:4
z8|z8|z8|z8|G,,4B,,4|C,4B,,4|C,4D,4|
V:1
BABF fcdB|AGAF fcdB|gcdB Afce|d2F2E2D2|C2A,2D2C2|B,3A, B,CD=E|F2f2g2f2|
V:2
D4E2D2|E6D2|A2Bzz2A2|BcBf FAGB|cdcf FBAc|=EBAc dFBG|A2d2_e2B2-|
V:3
F,2B,2A,2B,2|C2F2A,2B,2|E2FG FDEC|B,2D2C2B,2|A,2F,2 z2F,2|G,8|F,G,F,B, B,,_E,D,F,|
V:4
B,,8-|B,,8-|B,,8|z8|z8|z8|z8|
%
V:1
e2B2g2f2|c2BA Bdce|fedc d=efg|a2c2c'2a2|gf_ed efga|bag^f gbag|
V:2
B2B4B2|e6A2|B4z2=E2|FB,A,G, A,B,CD|_E2G,2G2E2|DCB,A, B,CDE|
V:3
G,A,G,B, B,,E,D,F,|A,,E,D,F, G,B,,E,C,|D,2B,,2B,2G,2|F,4z2F,2|C4z2C2|G,4z2G,2|
V:4
z8|z8|z8|z8|z8|z8|
V:1
=fedc =Bzz2|zdc_B Azz2|z2d2edec|fefd g4-|g^fg2-gaf2|g2d2e2d2|
V:2
F2z2z_AGF|E2z2zGFE|D2z2A2z2|FGFB dcdB|A2zB c4-|c2BA G2z2|
V:3
D2F2G,2=B,2|C2E2F,2A,2|B,CB,F F,B,A,C|B,2z2B,EDG|A,EDG ADEC|DEDG G,CB,D|
V:4
z8|z8|B,,4C,4|D,4B,,4|C,2B,,2A,,4|G,,8-|
V:1
c2G2e2d2|A2G^F GBAc|d8-|d4z4|z8|z8|
V:2
z8|z8|B,2G2B2A2|G2D2B2A2|=E2D^C DFEG|A2A,2F2D2|
V:3
EFEG G,CB,D|^F,CB,D EG,CA,|G,A,G,D D,G,^F,A,|B,CB,D D,G,=F,A,|^C,G,F,A, B,D,G,=E,|\
F,=E,D,^C, D,E,F,G,|
V:4
G,,8-|G,,8|z8|z8|z8|z8|
V:1
z8|z8|d=eda A^c=Bd|=efea Ad^ce|fgfa A=edf|^cgfa bdg=e|
V:2
^C=B,A,B, CD=EF|GF=EF GAB^C|D4^C2D=B,|^C4D2G,2|A,2D2^C2D2|=E2D4^C2|
V:3
A,2A,,2zA,G,F,|=E,D,^C,D, E,F,G,A,|B,2F,G,A,4-|A,2G,2F,2=E,2|D,4G,2F,2|B,2A,2G,2A,2|
V:4
z8|z8|z8|z8|z8|z8|
V:1
f8-|f_ede fga=b|c'_agf edcB|ABcB AGFE|D2B2 B,2D2|EFG_A GFED|C2z2 z4|
V:2
DBAG F_EDC|=B,2A,2G,2F,2|E,8-|E,D,C,D, E,F,G,A,|B,4 z2F,2|B,2z2 z2B,2-|B,B,A,G, A,B,C2-|
V:3
D,4 z2D,2|G,2F,2 E,2D,2|C,2_B,,2 =A,,2G,,2|F,,4 z4|B,,C,D,E, D,C,B,,A,,|G,,2E,2E,,2G,,2|\
A,,B,,C,D, C,B,,A,,G,,|
V:4
z8|z8|z8|z8|z8|z8|z8|
V:1
z8|GAGd D^F=EG|ABAd DG^FA|D2d2^F2G2-|G4 z2^F2|G2f2 e2d2|
V:2
CCDE DCB,A,|B,2D2 C2B,2|A,4 C4|B,2D2 c2B2|c2de dBcA|B2=B2 c2F2|
V:3
^F,,2D,2D,,2^F,2|G,2B,2A,2G,2|D,C,D,A,, A,=E,^F,D,|G,^F,G,D, DA,B,G,|EA,B,G, ^F,DA,C|\
DEDG G,C=B,D|
V:4
z8|G,,8|G,,4^F,,4|B,,4A,,2G,,2|A,,8|G,,8-|
V:1
c=BcG gdec|=BABG gdec|_adec =Bgdf|e8-|e^cd2- d^fg2-|g^fgB caAc|H=B8|]
V:2
Ezz2 z4|z8|z8|GFGC cABG|^F=EFD dABG|_eABG ^F4|G8|]
V:3
EFEG G,=B,A,C|DEDF G,=B,A,C|=B,DCE DCB,D|C2_B,2A,2G,2|A,4B,4|C2D2E4|D8|]
V:4
G,,8-|G,,8-|G,,8-|G,,8-|G,,8-|G,,8-|HG,,8|]
